svg/u1f9a1.svg

<svg viewBox="0 0 128 128" xmlns="http://www.w3.org/2000/svg">
  <path d="M29.39,61.37c0,0,0.26-4.98-4.23-4.57c-4.52,0.41-2.88,6.55-2.88,6.55L29.39,61.37z" fill="#AFAFAF"/>
  <path d="M48.56,93.79l-5.99,0.7c0,0,0.3,12.08-0.5,13.38c-0.8,1.3-5.99,4.59-5.99,4.59s-0.5,1.8,2.3,2.8 c2.8,1,8.29,0.6,8.29,0.6l7.89-19.28L48.56,93.79z" fill="#171717"/>
  <path d="M91.91,94.69c-0.6,0.1-8.39,2.8-8.39,2.8s2.8,10.29,1.1,11.98s-4.79,3.1-2.9,4.39 c1.9,1.3,9.29,1.1,11.29-1s2.2-3.8,2.3-5.89c0.1-2.1-0.2-12.68-0.2-12.68L91.91,94.69z" fill="#171717"/>
  <path d="M46.84,100.06c0,0,0.82,9.89-0.22,11.24c-1.05,1.35-5.47,4.19-5.62,4.72 c-0.15,0.52-0.07,3.9,5.77,3.82s9.74-0.79,12.28-3.86c2.55-3.07,2.25-12.32,2.25-12.32s10.71-0.3,14.08-0.67s7.57-0.67,7.57-0.67 s1.12,4.64,0.52,6.37c-0.6,1.72-2.77,3.22-2.17,3.82c0.6,0.6,3.52-0.22,4.34-2.47c0.82-2.25,0.15-8.16,0.15-8.16 s4.72-0.67,7.64-1.27c2.92-0.6,4.42-0.82,4.42-0.82s1.2,6.89,0.75,9.06c-0.45,2.17-5.84,7.19-3.9,7.64c1.95,0.45,5.58,1.16,9.14,0.3 c2.81-0.68,5.33-3.36,5.58-5.02c0.11-0.75,0.2-2.24,0.22-3.63c0.04-2.1-0.41-17.19-0.41-17.19l-53.71-23l-7.72-1.27 c0,0-2.4-1.05-4.19-1.87c-1.8-0.82-3.97-1.42-3.97-1.42s0-5.02-2.4-5.24c-2.4-0.22-3.97,2.85-3.97,2.85l-6.44,1.27L16.05,67.4 l-4.49,8.16l-4.34,0.52c0,0-5.84,0.94-6.52,3.67c-0.61,2.49,0.97,3.3,0.97,3.3s0.11,1.61,0.79,2.66s1.84,1.24,1.84,1.24 s1.07,1.74,2.4,2.32c2.92,1.27,5.18,0.67,8.24,0.45c3.15-0.22,6.97-0.52,6.97-0.52s6.89,3,11.09,4.72s8.69,3.82,8.69,3.82 s0.07,7.72-0.52,9.89c-0.6,2.17-5.84,3.67-5.69,4.79c0.15,1.12,2.85-0.07,4.49-0.97s2.77-2.25,3.15-3.52 c0.37-1.27,0.45-9.66,0.45-9.66L46.84,100.06z" fill="#575A5B"/>
  <path d="M113.28,88.55l-2,5.37c0,0,1.37,2.8,3.65,4.94c2,1.89,3.29,2.73,5.39,2.7 c3.1-0.05,8.24-3.82,6.97-5.32c-1.04-1.22-4.94-4.54-4.94-4.54L113.28,88.55z" fill="#DFDFDF"/>
  <path d="M81.15,56.77c15.43,0.75,24.42,7.72,27.57,14.31c3.15,6.59,4.27,9.89,5.32,11.54 s9.44,10.04,9.44,10.04s-1.91,1.89-5.92,2.55c-3.22,0.52-5.62-0.15-5.62-0.15s-0.62-0.84-1.12-1.6c-0.35-0.52-0.9-1.25-1.87-0.6 c-1.26,0.84-4.19,5.34-9.21,5.64c-6.03,0.36-11.76-1.8-11.76-1.8s0.22,2.77-0.37,2.92c-0.6,0.15-4.83-1.39-6.59-2.36 c-1.45-0.8-4.87-3.18-4.87-3.18s1.65,5.24,1.2,5.77c-0.45,0.52-3.71-0.45-5.92-2.25c-1.49-1.21-7.42-6.37-7.42-6.37 s1.8,5.47,1.35,6.07c-0.45,0.6-4.51-1.2-7.34-4.72c-3.07-3.82-4.79-7.79-5.99-13.63c-1.12-5.48-1.57-7.42-2.25-9.36 s-1.95-2.92-1.95-2.92s3.45,0.15,4.72-0.52C53.8,65.46,67.36,56.09,81.15,56.77z" fill="#AFAFAF"/>
  <path d="M49.31,84.78c-0.07,0.6-12.16,0.52-15.46,0.67c-3.3,0.15-10.76,2.02-13.83,2.4 c-3.07,0.37-8.16,1.35-10.56,0.97c-2.4-0.37-2.62-0.97-2.55-1.35c0.07-0.37,2.92,0.04,3.52-0.82c0.6-0.86-0.04-1.8-0.9-1.31 s-2.72,0.79-3.92,0.64s-1.92-1.2-1.92-1.84s1.8-0.84,2.52-1.56c0.96-0.96,1.52-2.2,1.37-4.32c-0.1-1.4-0.55-2.05-0.27-2.2 c0.4-0.22,1.45-0.3,2.37-2.67c0.75-1.92,2.27-5.48,5.12-7.62c3.21-2.41,5.94-3.94,11.14-4.72c5.09-0.76,5.51-0.36,5.51-0.36 s1.65-4.72,6.22-3.9s3.11,6.88,3.11,6.88l-2.05-0.32c0,0,0.59-3.07-1.59-3.45c-2.17-0.37-3.11,2.51-3.11,2.51s-8.01,0.79-11.27,2.73 c-3.6,2.15-11.24,8.54-9.14,13.15s11.87,0.07,13.56-1.05c1.69-1.12,6.69-4.7,9.7-3.96c3,0.74,3.98,3.07,6.77,5.52 C45.3,80.27,49.42,83.81,49.31,84.78z" fill="#DFDFDF"/>
  <path d="M24.07,74.78c-0.64,1.69-2.1,2.43-3.9,1.98c-1.55-0.39-2.4-3.07-1.35-5.02 c0.94-1.75,2.77-1.84,4.12-1.35C24.44,70.94,24.76,72.96,24.07,74.78z" fill="#191919"/>
  <path d="M21.43,73.24C21,74.03,20,74.58,19.31,73.96c-0.49-0.44-0.28-1.52,0.34-2.47 c0.62-0.95,1.69-1.17,2.06-0.7C22.19,71.41,21.84,72.5,21.43,73.24z" fill="#E1E1E1"/>
  <path d="M33.73,113.02c0.09,0.9,3.33,1.31,3.18-0.45C36.76,110.81,33.62,111.93,33.73,113.02z" fill="#DFDFDF"/>
  <path d="M35.64,115.83c0.44,0.86,4.04,0.04,3.18-1.72C37.96,112.35,35.04,114.67,35.64,115.83z" fill="#DFDFDF"/>
  <path d="M39.09,118.04c0.36,0.87,4.42-0.49,3.67-1.8S38.41,116.43,39.09,118.04z" fill="#DFDFDF"/>
  <path d="M40.81,120.17c0.61,1.03,4.79-0.71,3.56-2.1S40.17,119.09,40.81,120.17z" fill="#DFDFDF"/>
  <path d="M79.46,113.66c0.29,0.79,3.33,0.04,3-1.05S79.16,112.83,79.46,113.66z" fill="#E0E0E0"/>
  <path d="M82.04,115.53c0.59,0.44,3.41-1.35,2.1-2.06C82.83,112.76,81.15,114.86,82.04,115.53z" fill="#E0E0E0"/>
  <path d="M85.04,116.05c1.22,0.37,3.41-1.91,1.87-2.36C85.38,113.24,84.18,115.79,85.04,116.05z" fill="#E0E0E0"/>
  <path d="M95.9,114.97c-0.87-0.73-3.6,0.86-2.77,1.95C93.95,118,97.06,115.94,95.9,114.97z" fill="#E0E0E0"/>
  <path d="M95.85,118.65c1.29,0.7,3.79-2.54,2.35-2.97C96.76,115.26,94.82,118.09,95.85,118.65z" fill="#E0E0E0"/>
  <path d="M101.11,116.02c-1.6-0.23-3.52,2.73-1.8,2.85S102.64,116.24,101.11,116.02z" fill="#E0E0E0"/>
  <path d="M65.79,84.95c-0.31,0-0.63-0.14-0.84-0.41l-2.25-2.85c-0.36-0.46-0.29-1.13,0.18-1.49 c0.46-0.36,1.13-0.28,1.49,0.18l2.25,2.85c0.36,0.46,0.28,1.13-0.18,1.49C66.25,84.87,66.02,84.95,65.79,84.95z" fill="#999999"/>
  <path d="M77.77,86.22c-0.24,0-0.48-0.08-0.67-0.24l-3.75-3.07c-0.46-0.37-0.52-1.04-0.15-1.5 c0.37-0.45,1.04-0.52,1.5-0.15l3.75,3.07c0.46,0.37,0.52,1.04,0.15,1.5C78.39,86.09,78.08,86.22,77.77,86.22z" fill="#999999"/>
  <path d="M82.12,76.78c-0.21,0-0.42-0.06-0.61-0.19l-3.75-2.62c-0.48-0.34-0.6-1-0.26-1.48 c0.34-0.48,1-0.6,1.48-0.26l3.75,2.62c0.48,0.34,0.6,1,0.26,1.48C82.78,76.62,82.45,76.78,82.12,76.78z" fill="#999999"/>
  <path d="M93.5,73.61c-0.22,0-0.44-0.07-0.62-0.2l-3.82-2.77c-0.48-0.35-0.58-1.01-0.24-1.49 c0.34-0.48,1.01-0.58,1.49-0.24l3.82,2.77c0.48,0.35,0.58,1.01,0.24,1.49C94.16,73.46,93.83,73.61,93.5,73.61z" fill="#999999"/>
  <path d="M95.6,83.22c-0.17,0-0.34-0.04-0.5-0.12l-3.37-1.8c-0.52-0.28-0.71-0.92-0.44-1.44 c0.28-0.52,0.92-0.71,1.44-0.44l3.37,1.8c0.52,0.28,0.71,0.92,0.44,1.44C96.35,83.02,95.98,83.22,95.6,83.22z" fill="#999999"/>
  <path d="M105.02,76.66c-0.17-0.02-0.33-0.08-0.48-0.19l-3.11-2.21c-0.48-0.34-0.59-1.01-0.25-1.48 c0.34-0.48,1-0.59,1.48-0.25l3.11,2.21c0.48,0.34,0.59,1.01,0.25,1.48C105.79,76.55,105.4,76.71,105.02,76.66z" fill="#999999"/>
</svg>

<svg viewBox="0 0 128 128" xmlns="http://www.w3.org/2000/svg">
  <defs/>
  <path d="M29.39,61.37 C29.39,61.37 29.65,56.39 25.16,56.8 C20.64,57.21 22.28,63.35 22.28,63.35 L29.39,61.37 Z" fill="#AFAFAF"/>
  <path d="M48.56,93.79 L42.57,94.49 C42.57,94.49 42.87,106.57 42.07,107.87 C41.27,109.17 36.08,112.46 36.08,112.46 C36.08,112.46 35.58,114.26 38.38,115.26 C41.18,116.26 46.67,115.86 46.67,115.86 L54.56,96.58 L48.56,93.79 Z" fill="#171717"/>
  <path d="M91.91,94.69 C91.31,94.79 83.52,97.49 83.52,97.49 C83.52,97.49 86.32,107.78 84.62,109.47 C82.92,111.16 79.83,112.57 81.72,113.86 C83.62,115.16 91.01,114.96 93.01,112.86 C95.01,110.76 95.21,109.06 95.31,106.97 C95.41,104.87 95.11,94.29 95.11,94.29 L91.91,94.69 Z" fill="#171717"/>
  <path d="M46.84,100.06 C46.84,100.06 47.66,109.95 46.62,111.3 C45.57,112.65 41.15,115.49 41,116.02 C40.85,116.54 40.93,119.92 46.77,119.84 C52.61,119.76 56.51,119.05 59.05,115.98 C61.6,112.91 61.3,103.66 61.3,103.66 C61.3,103.66 72.01,103.36 75.38,102.99 C78.75,102.62 82.95,102.32 82.95,102.32 C82.95,102.32 84.07,106.96 83.47,108.69 C82.87,110.41 80.7,111.91 81.3,112.51 C81.9,113.11 84.82,112.29 85.64,110.04 C86.46,107.79 85.79,101.88 85.79,101.88 C85.79,101.88 90.51,101.21 93.43,100.61 C96.35,100.01 97.85,99.79 97.85,99.79 C97.85,99.79 99.05,106.68 98.6,108.85 C98.15,111.02 92.76,116.04 94.7,116.49 C96.65,116.94 100.28,117.65 103.84,116.79 C106.65,116.11 109.17,113.43 109.42,111.77 C109.53,111.02 109.62,109.53 109.64,108.14 C109.68,106.04 109.23,90.95 109.23,90.95 L55.52,67.95 L47.8,66.68 C47.8,66.68 45.4,65.63 43.61,64.81 C41.81,63.99 39.64,63.39 39.64,63.39 C39.64,63.39 39.64,58.37 37.24,58.15 C34.84,57.93 33.27,61 33.27,61 L26.83,62.27 L16.05,67.4 L11.56,75.56 L7.22,76.08 C7.22,76.08 1.38,77.02 0.7,79.75 C0.09,82.24 1.67,83.05 1.67,83.05 C1.67,83.05 1.78,84.66 2.46,85.71 C3.14,86.76 4.3,86.95 4.3,86.95 C4.3,86.95 5.37,88.69 6.7,89.27 C9.62,90.54 11.88,89.94 14.94,89.72 C18.09,89.5 21.91,89.2 21.91,89.2 C21.91,89.2 28.8,92.2 33,93.92 C37.2,95.64 41.69,97.74 41.69,97.74 C41.69,97.74 41.76,105.46 41.17,107.63 C40.57,109.8 35.33,111.3 35.48,112.42 C35.63,113.54 38.33,112.35 39.97,111.45 C41.61,110.55 42.74,109.2 43.12,107.93 C43.49,106.66 43.57,98.27 43.57,98.27 L46.84,100.06 Z" fill="#575A5B"/>
  <path d="M113.28,88.55 L111.28,93.92 C111.28,93.92 112.65,96.72 114.93,98.86 C116.93,100.75 118.22,101.59 120.32,101.56 C123.42,101.51 128.56,97.74 127.29,96.24 C126.25,95.02 122.35,91.7 122.35,91.7 L113.28,88.55 Z" fill="#DFDFDF"/>
  <path d="M81.15,56.77 C96.58,57.52 105.57,64.49 108.72,71.08 C111.87,77.67 112.99,80.97 114.04,82.62 C115.09,84.27 123.48,92.66 123.48,92.66 C123.48,92.66 121.57,94.55 117.56,95.21 C114.34,95.73 111.94,95.06 111.94,95.06 C111.94,95.06 111.32,94.22 110.82,93.46 C110.47,92.94 109.92,92.21 108.95,92.86 C107.69,93.7 104.76,98.2 99.74,98.5 C93.71,98.86 87.98,96.7 87.98,96.7 C87.98,96.7 88.2,99.47 87.61,99.62 C87.01,99.77 82.78,98.23 81.02,97.26 C79.57,96.46 76.15,94.08 76.15,94.08 C76.15,94.08 77.8,99.32 77.35,99.85 C76.9,100.37 73.64,99.4 71.43,97.6 C69.94,96.39 64.01,91.23 64.01,91.23 C64.01,91.23 65.81,96.7 65.36,97.3 C64.91,97.9 60.85,96.1 58.02,92.58 C54.95,88.76 53.23,84.79 52.03,78.95 C50.91,73.47 50.46,71.53 49.78,69.59 C49.1,67.65 47.83,66.67 47.83,66.67 C47.83,66.67 51.28,66.82 52.55,66.15 C53.8,65.46 67.36,56.09 81.15,56.77 Z" fill="#AFAFAF"/>
  <path d="M49.31,84.78 C49.24,85.38 37.15,85.3 33.85,85.45 C30.55,85.6 23.09,87.47 20.02,87.85 C16.95,88.22 11.86,89.2 9.46,88.82 C7.06,88.45 6.84,87.85 6.91,87.47 C6.98,87.1 9.83,87.51 10.43,86.65 C11.03,85.79 10.39,84.85 9.53,85.34 C8.67,85.83 6.81,86.13 5.61,85.98 C4.41,85.83 3.69,84.78 3.69,84.14 C3.69,83.5 5.49,83.3 6.21,82.58 C7.17,81.62 7.73,80.38 7.58,78.26 C7.48,76.86 7.03,76.21 7.31,76.06 C7.71,75.84 8.76,75.76 9.68,73.39 C10.43,71.47 11.95,67.91 14.8,65.77 C18.01,63.36 20.74,61.83 25.94,61.05 C31.03,60.29 31.45,60.69 31.45,60.69 C31.45,60.69 33.1,55.97 37.67,56.79 C42.24,57.61 40.78,63.67 40.78,63.67 L38.73,63.35 C38.73,63.35 39.32,60.28 37.14,59.9 C34.97,59.53 34.03,62.41 34.03,62.41 C34.03,62.41 26.02,63.2 22.76,65.14 C19.16,67.29 11.52,73.68 13.62,78.29 C15.72,82.9 25.49,78.36 27.18,77.24 C28.87,76.12 33.87,72.54 36.88,73.28 C39.88,74.02 40.86,76.35 43.65,78.8 C45.3,80.27 49.42,83.81 49.31,84.78 Z" fill="#DFDFDF"/>
  <path d="M24.07,74.78 C23.43,76.47 21.97,77.21 20.17,76.76 C18.62,76.37 17.77,73.69 18.82,71.74 C19.76,69.99 21.59,69.9 22.94,70.39 C24.44,70.94 24.76,72.96 24.07,74.78 Z" fill="#191919"/>
  <path d="M21.43,73.24 C21,74.03 20,74.58 19.31,73.96 C18.82,73.52 19.03,72.44 19.65,71.49 C20.27,70.54 21.34,70.32 21.71,70.79 C22.19,71.41 21.84,72.5 21.43,73.24 Z" fill="#E1E1E1"/>
  <path d="M33.73,113.02 C33.82,113.92 37.06,114.33 36.91,112.57 C36.76,110.81 33.62,111.93 33.73,113.02 Z" fill="#DFDFDF"/>
  <path d="M35.64,115.83 C36.08,116.69 39.68,115.87 38.82,114.11 C37.96,112.35 35.04,114.67 35.64,115.83 Z" fill="#DFDFDF"/>
  <path d="M39.09,118.04 C39.45,118.91 43.51,117.55 42.76,116.24 C42.01,114.93 38.41,116.43 39.09,118.04 Z" fill="#DFDFDF"/>
  <path d="M40.81,120.17 C41.42,121.2 45.6,119.46 44.37,118.07 C43.14,116.68 40.17,119.09 40.81,120.17 Z" fill="#DFDFDF"/>
  <path d="M79.46,113.66 C79.75,114.45 82.79,113.7 82.46,112.61 C82.13,111.52 79.16,112.83 79.46,113.66 Z" fill="#E0E0E0"/>
  <path d="M82.04,115.53 C82.63,115.97 85.45,114.18 84.14,113.47 C82.83,112.76 81.15,114.86 82.04,115.53 Z" fill="#E0E0E0"/>
  <path d="M85.04,116.05 C86.26,116.42 88.45,114.14 86.91,113.69 C85.38,113.24 84.18,115.79 85.04,116.05 Z" fill="#E0E0E0"/>
  <path d="M95.9,114.97 C95.03,114.24 92.3,115.83 93.13,116.92 C93.95,118 97.06,115.94 95.9,114.97 Z" fill="#E0E0E0"/>
  <path d="M95.85,118.65 C97.14,119.35 99.64,116.11 98.2,115.68 C96.76,115.26 94.82,118.09 95.85,118.65 Z" fill="#E0E0E0"/>
  <path d="M101.11,116.02 C99.51,115.79 97.59,118.75 99.31,118.87 C101.03,118.99 102.64,116.24 101.11,116.02 Z" fill="#E0E0E0"/>
  <path d="M65.79,84.95 C65.48,84.95 65.16,84.81 64.95,84.54 L62.7,81.69 C62.34,81.23 62.41,80.56 62.88,80.2 C63.34,79.84 64.01,79.92 64.37,80.38 L66.62,83.23 C66.98,83.69 66.9,84.36 66.44,84.72 C66.25,84.87 66.02,84.95 65.79,84.95 Z" fill="#999999"/>
  <path d="M77.77,86.22 C77.53,86.22 77.29,86.14 77.1,85.98 L73.35,82.91 C72.89,82.54 72.83,81.87 73.2,81.41 C73.57,80.96 74.24,80.89 74.7,81.26 L78.45,84.33 C78.91,84.7 78.97,85.37 78.6,85.83 C78.39,86.09 78.08,86.22 77.77,86.22 Z" fill="#999999"/>
  <path d="M82.12,76.78 C81.91,76.78 81.7,76.72 81.51,76.59 L77.76,73.97 C77.28,73.63 77.16,72.97 77.5,72.49 C77.84,72.01 78.5,71.89 78.98,72.23 L82.73,74.85 C83.21,75.19 83.33,75.85 82.99,76.33 C82.78,76.62 82.45,76.78 82.12,76.78 Z" fill="#999999"/>
  <path d="M93.5,73.61 C93.28,73.61 93.06,73.54 92.88,73.41 L89.06,70.64 C88.58,70.29 88.48,69.63 88.82,69.15 C89.16,68.67 89.83,68.57 90.31,68.91 L94.13,71.68 C94.61,72.03 94.71,72.69 94.37,73.17 C94.16,73.46 93.83,73.61 93.5,73.61 Z" fill="#999999"/>
  <path d="M95.6,83.22 C95.43,83.22 95.26,83.18 95.1,83.1 L91.73,81.3 C91.21,81.02 91.02,80.38 91.29,79.86 C91.57,79.34 92.21,79.15 92.73,79.42 L96.1,81.22 C96.62,81.5 96.81,82.14 96.54,82.66 C96.35,83.02 95.98,83.22 95.6,83.22 Z" fill="#999999"/>
  <path d="M105.02,76.66 C104.85,76.64 104.69,76.58 104.54,76.47 L101.43,74.26 C100.95,73.92 100.84,73.25 101.18,72.78 C101.52,72.3 102.18,72.19 102.66,72.53 L105.77,74.74 C106.25,75.08 106.36,75.75 106.02,76.22 C105.79,76.55 105.4,76.71 105.02,76.66 Z" fill="#999999"/>
</svg>
